img/svg/video-icon1.svg

<svg class="sc-gEvEer hSTeNi mx-icon" focusable="false" width="1em" height="1em" fill="currentColor" aria-hidden="true" viewBox="0 0 48 48" data-icon="IconFee"><path d="M35.812 21.5126V23.0126H37.312H37.9946C39.1712 23.0126 39.977 23.6562 40.3171 24.4211C40.6508 25.1718 40.5586 26.065 39.7986 26.7731L25.8041 39.8117C24.819 40.7294 23.181 40.7294 22.1959 39.8117L8.20135 26.7731C7.44143 26.065 7.3492 25.1718 7.68295 24.4211C8.02303 23.6562 8.82876 23.0126 10.0054 23.0126H11.3287H12.8287V21.5126V9.72438C12.8287 8.59408 13.8451 7.5 15.3261 7.5H33.3146C34.7956 7.5 35.812 8.59408 35.812 9.72438V21.5126Z" stroke="currentColor" fill="none" stroke-width="3"></path><path d="M22.5 16.5C22.5 15.6716 23.1716 15 24 15C24.8284 15 25.5 15.6716 25.5 16.5V29.5C25.5 30.3284 24.8284 31 24 31C23.1716 31 22.5 30.3284 22.5 29.5V16.5Z" fill="currentColor"></path><rect x="6" y="39" width="36" height="3" rx="1.5" fill="currentColor"></rect></svg>

<svg class="sc-gEvEer hSTeNi mx-icon" width="1em" height="1em" fill="currentColor" aria-hidden="true" viewBox="0 0 48 48" data-icon="IconFee"><path d="M35.812 21.513v1.5h2.183c1.176 0 1.982.643 2.322 1.408.334.75.242 1.644-.518 2.352L25.804 39.812c-.985.917-2.623.917-3.608 0L8.2 26.773c-.76-.708-.852-1.601-.518-2.352.34-.765 1.146-1.408 2.322-1.408h2.824V9.724c0-1.13 1.016-2.224 2.497-2.224h17.989c1.48 0 2.497 1.094 2.497 2.224v11.789z" stroke="currentColor" fill="none" stroke-width="3"/><path d="M22.5 16.5a1.5 1.5 0 013 0v13a1.5 1.5 0 01-3 0v-13z"/><rect x="6" y="39" width="36" height="3" rx="1.5"/></svg>
